src/app/client/src/assets/images/badge-complete.svg

<?xml version="1.0" encoding="UTF-8"?>
<svg width="79px" height="69px" viewBox="0 0 79 69" version="1.1" xmlns="http://www.w3.org/2000/svg" xmlns:xlink="http://www.w3.org/1999/xlink">
    <title>02CDC490-E36C-4703-A5E9-BBC5FA1D1BA8</title>
    <g id="Web-Library-FLow" stroke="none" stroke-width="1" fill="none" fill-rule="evenodd">
        <g id="Courses-on-library---Congratulations-popup" transform="translate(-409.000000, -110.000000)">
            <g id="Group-13-Copy-6">
                <g id="Group-6" transform="translate(361.000000, 70.000000)">
                    <g id="Badge-green" transform="translate(48.000000, 40.000000)">
                        <g id="Group-7">
                            <path d="M39.1998176,1.17390204 L10.8,18.6295755 L10.8,51.840543 L39.1995121,67.4808198 L67.5927371,51.8123674 L67.5998796,18.6418901 L39.1998176,1.17390204 Z" id="Polygon" stroke="#008840" stroke-width="2" fill="#FFFFFF"></path>
                            <polygon id="Star" fill="#008840" points="39.2 61.25 35.8055402 62.9495935 36.4538243 59.3497967 33.7076486 56.8004065 37.5027701 56.2752033 39.2 53 40.8972299 56.2752033 44.6923514 56.8004065 41.9461757 59.3497967 42.5944598 62.9495935"></polygon>
                            <polygon id="Star-Copy" fill="#008840" points="50.3821429 56 47.8513075 57.236068 48.334654 54.618034 46.2871652 52.763932 49.1167252 52.381966 50.3821429 50 51.6475605 52.381966 54.4771205 52.763932 52.4296317 54.618034 52.9129782 57.236068"></polygon>
                            <polygon id="Star-Copy-2" fill="#008840" points="28.3821429 56 25.8513075 57.236068 26.334654 54.618034 24.2871652 52.763932 27.1167252 52.381966 28.3821429 50 29.6475605 52.381966 32.4771205 52.763932 30.4296317 54.618034 30.9129782 57.236068"></polygon>
                            <polygon id="Rectangle" fill="#008840" points="0 33.6 78.4 33.6 68.8969697 41.2268112 78.4 49 0 49 9.5030303 41.3443516"></polygon>
                            <g id="Shape-2" transform="translate(29.400000, 14.000000)" fill="#008840" fill-rule="nonzero">
                                <path d="M13.1130747,10.804892 C16.750307,10.3684 19.6,6.4141 19.6,1.595636 L16.3921821,1.595636 C16.4280365,1.07212 16.4529879,0.54194 16.4529879,0 L3.23193051,0 C3.23193051,0.54194 3.25625281,1.071924 3.29252658,1.595832 L0,1.595832 C0,6.45232 2.89603115,10.428376 6.57624682,10.810772 C6.8205182,11.072236 7.07233788,11.308612 7.33401228,11.510884 L7.1979332,11.510884 L7.1979332,12.755288 L8.5199341,12.755288 L8.5199341,15.866396 L7.1979332,15.866396 L7.1979332,17.111192 L5.87572263,17.111192 L5.87572263,19.6 L13.808357,19.6 L13.808357,17.1108 L12.4861465,17.1108 L12.4861465,15.8662 L11.1639359,15.8662 L11.1639359,12.755288 L12.4861465,12.755288 L12.4861465,11.510884 L12.3498577,11.510884 C12.6142579,11.306848 12.867755,11.068512 13.1130747,10.804892 Z M18.2073386,2.839844 C17.8680845,5.816888 16.3269732,8.248464 14.2914483,9.184952 C15.2603564,7.520716 15.9638161,5.326496 16.2730867,2.839844 L18.2073386,2.839844 Z M1.3924517,2.839844 L3.41099296,2.839844 C3.72361839,5.35178 4.43881983,7.565404 5.42345365,9.235716 C3.33131646,8.339604 1.73841546,5.871964 1.3924517,2.839844 Z" id="Shape"></path>
                            </g>
                            <path d="M17.6928889,40.073125 C17.2959091,40.073125 16.9924751,40.2220818 16.7825778,40.52 C16.5726804,40.8179182 16.4677333,41.2258307 16.4677333,41.74375 C16.4677333,42.2662526 16.5646953,42.6707277 16.7586222,42.9571875 C16.9525491,43.2436473 17.2639682,43.386875 17.6928889,43.386875 C17.8890973,43.386875 18.0875842,43.3639586 18.2883556,43.318125 C18.4891269,43.2722914 18.7058655,43.2081254 18.9385778,43.125625 L18.9385778,43.99875 C18.7241174,44.0858338 18.5119418,44.1499998 18.3020444,44.19125 C18.0921471,44.2325002 17.8571569,44.253125 17.5970667,44.253125 C17.0905752,44.253125 16.6753498,44.1488552 16.3513778,43.9403125 C16.0274058,43.7317698 15.7878526,43.4384394 15.6327111,43.0603125 C15.4775696,42.6821856 15.4,42.2410442 15.4,41.736875 C15.4,41.2418725 15.4889769,40.8041686 15.6669333,40.42375 C15.8448898,40.0433314 16.1038353,39.7454177 16.4437778,39.53 C16.7837202,39.3145823 17.2000864,39.206875 17.6928889,39.206875 C17.9347271,39.206875 18.1777025,39.2378122 18.4218222,39.2996875 C18.665942,39.3615628 18.8997915,39.4452078 19.1233778,39.550625 L18.788,40.39625 C18.6054806,40.3091662 18.4218231,40.233542 18.2370222,40.169375 C18.0522213,40.105208 17.8708453,40.073125 17.6928889,40.073125 Z M26.1936889,41.723125 C26.1936889,42.2318775 26.1104156,42.6753106 25.9438667,43.0534375 C25.7773177,43.4315644 25.5217943,43.7260406 25.1772889,43.936875 C24.8327835,44.1477094 24.3958841,44.253125 23.8665778,44.253125 C23.3372714,44.253125 22.9003721,44.1477094 22.5558667,43.936875 C22.2113612,43.7260406 21.9558379,43.4304186 21.7892889,43.05 C21.6227399,42.6695814 21.5394667,42.2250025 21.5394667,41.71625 C21.5394667,41.2074975 21.6227399,40.7652102 21.7892889,40.389375 C21.9558379,40.0135398 22.2113612,39.7213552 22.5558667,39.5128125 C22.9003721,39.3042698 23.3395529,39.2 23.8734222,39.2 C24.4027286,39.2 24.8384872,39.3042698 25.1807111,39.5128125 C25.522935,39.7213552 25.7773177,40.0146856 25.9438667,40.3928125 C26.1104156,40.7709394 26.1936889,41.2143725 26.1936889,41.723125 Z M22.6277333,41.723125 C22.6277333,42.2364609 22.7258361,42.640936 22.9220444,42.9365625 C23.1182528,43.232189 23.4330941,43.38 23.8665778,43.38 C24.3091874,43.38 24.6263102,43.232189 24.8179556,42.9365625 C25.009601,42.640936 25.1054222,42.2364609 25.1054222,41.723125 C25.1054222,41.2097891 25.009601,40.805314 24.8179556,40.5096875 C24.6263102,40.214061 24.3114689,40.06625 23.8734222,40.06625 C23.4353756,40.06625 23.1182528,40.214061 22.9220444,40.5096875 C22.7258361,40.805314 22.6277333,41.2097891 22.6277333,41.723125 Z M31.0532444,44.184375 L29.876,40.334375 L29.8486222,40.334375 L29.8691556,40.746875 C29.8782815,40.9302092 29.8874074,41.1272906 29.8965333,41.338125 C29.9056593,41.5489594 29.9102222,41.7368742 29.9102222,41.901875 L29.9102222,44.184375 L28.9862222,44.184375 L28.9862222,39.275625 L30.3961778,39.275625 L31.5528889,43.029375 L31.5734222,43.029375 L32.7985778,39.275625 L34.2085333,39.275625 L34.2085333,44.184375 L33.2434667,44.184375 L33.2434667,41.860625 C33.2434667,41.7047909 33.2468889,41.5260427 33.2537333,41.324375 C33.2605778,41.1227073 33.2674222,40.9313551 33.2742667,40.7503125 C33.2811111,40.5692699 33.2868148,40.4329171 33.2913778,40.34125 L33.264,40.34125 L32.0046222,44.184375 L31.0532444,44.184375 Z M38.7806222,39.275625 C39.4103143,39.275625 39.8700282,39.4119778 40.1597778,39.6846875 C40.4495274,39.9573972 40.5944,40.3320809 40.5944,40.80875 C40.5944,41.0975014 40.5350821,41.3656238 40.4164444,41.613125 C40.2978068,41.8606262 40.1004606,42.0599992 39.8244,42.21125 C39.5483394,42.3625008 39.1730394,42.438125 38.6984889,42.438125 L38.2536,42.438125 L38.2536,44.184375 L37.2200889,44.184375 L37.2200889,39.275625 L38.7806222,39.275625 Z M38.7258667,40.128125 L38.2536,40.128125 L38.2536,41.585625 L38.5958222,41.585625 C38.8878533,41.585625 39.1194214,41.5271881 39.2905333,41.4103125 C39.4616453,41.2934369 39.5472,41.1043763 39.5472,40.843125 C39.5472,40.366456 39.273425,40.128125 38.7258667,40.128125 Z M43.2979556,44.184375 L43.2979556,39.275625 L44.3314667,39.275625 L44.3314667,43.325 L46.3163556,43.325 L46.3163556,44.184375 L43.2979556,44.184375 Z M51.7576889,44.184375 L48.9446222,44.184375 L48.9446222,39.275625 L51.7576889,39.275625 L51.7576889,40.128125 L49.9781333,40.128125 L49.9781333,41.2075 L51.6344889,41.2075 L51.6344889,42.06 L49.9781333,42.06 L49.9781333,43.325 L51.7576889,43.325 L51.7576889,44.184375 Z M56.4392889,44.184375 L55.4057778,44.184375 L55.4057778,40.141875 L54.0779556,40.141875 L54.0779556,39.275625 L57.7671111,39.275625 L57.7671111,40.141875 L56.4392889,40.141875 L56.4392889,44.184375 Z M63.1126222,44.184375 L60.2995556,44.184375 L60.2995556,39.275625 L63.1126222,39.275625 L63.1126222,40.128125 L61.3330667,40.128125 L61.3330667,41.2075 L62.9894222,41.2075 L62.9894222,42.06 L61.3330667,42.06 L61.3330667,43.325 L63.1126222,43.325 L63.1126222,44.184375 Z" id="COMPLETE" fill="#FFFFFF" fill-rule="nonzero"></path>
                        </g>
                    </g>
                </g>
            </g>
        </g>
    </g>
</svg>

<svg xmlns="http://www.w3.org/2000/svg" width="79" height="69" fill-rule="evenodd" xmlns:v="https://vecta.io/nano"><path d="M39.2 1.174L10.8 18.63v33.21l28.4 15.64 28.393-15.668.007-33.17L39.2 1.174z" stroke="#008840" stroke-width="2" fill="#fff"/><g fill="#008840"><path d="M39.2 61.25l-3.394 1.7.648-3.6-2.746-2.55 3.795-.525L39.2 53l1.697 3.275 3.795.525-2.746 2.55.648 3.6zM50.382 56l-2.53 1.236.483-2.618-2.047-1.854 2.83-.382L50.382 50l1.265 2.382 2.83.382-2.047 1.854.483 2.618zm-22 0l-2.53 1.236.483-2.618-2.047-1.854 2.83-.382L28.382 50l1.265 2.382 2.83.382-2.047 1.854.483 2.618zM0 33.6h78.4l-9.503 7.627L78.4 49H0l9.503-7.656z"/><path d="M42.513 24.805c3.637-.436 6.487-4.39 6.487-9.21h-3.208A23.27 23.27 0 0 0 45.853 14h-13.22c0 .542.024 1.072.06 1.596H29.4c0 4.856 2.896 8.833 6.576 9.215.244.26.496.498.758.7h-.136v1.244h1.322v3.11h-1.322v1.245h-1.322v2.49h7.933v-2.49h-1.322v-1.245h-1.322v-3.11h1.322V25.51h-.136c.264-.204.518-.442.763-.706zm5.094-7.965c-.34 2.977-1.88 5.41-3.916 6.345.97-1.664 1.672-3.858 1.982-6.345h1.934zm-16.815 0h2.02c.313 2.512 1.028 4.726 2.012 6.396-2.092-.896-3.685-3.364-4.03-6.396z" fill-rule="nonzero"/></g><path d="M17.693 40.073c-.397 0-.7.15-.9.447s-.315.706-.315 1.224.097.927.29 1.213.505.43.934.43a2.67 2.67 0 0 0 .595-.069c.2-.046.418-.1.65-.193V44a3.47 3.47 0 0 1-.637.192 3.67 3.67 0 0 1-.705.062c-.506 0-.922-.104-1.246-.313s-.564-.502-.72-.88-.233-.82-.233-1.323c0-.495.09-.933.267-1.313a2.07 2.07 0 0 1 .777-.894c.34-.215.756-.323 1.25-.323.242 0 .485.03.73.093a3.87 3.87 0 0 1 .702.251l-.335.846a5.37 5.37 0 0 0-.551-.227c-.185-.064-.366-.096-.544-.096zm8.5 1.65c0 .51-.083.952-.25 1.33s-.422.673-.767.883-.78.316-1.31.316-.966-.105-1.31-.316a1.91 1.91 0 0 1-.767-.887c-.167-.38-.25-.825-.25-1.334s.083-.95.25-1.327.422-.668.767-.877.784-.313 1.318-.313.965.104 1.307.313a1.9 1.9 0 0 1 .763.88c.167.378.25.822.25 1.33zm-3.566 0c0 .513.098.918.294 1.213s.51.443.945.443c.443 0 .76-.148.95-.443s.287-.7.287-1.213-.096-.918-.287-1.213-.506-.443-.945-.443-.755.148-.95.443-.294.7-.294 1.213zm8.426 2.46l-1.177-3.85h-.027l.02.413.027.59.014.564v2.283h-.924v-4.91h1.4l1.157 3.754h.02l1.225-3.754h1.4v4.91h-.965V41.86l.01-.536.02-.574.017-.41h-.027l-1.26 3.843h-.95zm7.727-4.91c.63 0 1.09.136 1.38.41s.435.647.435 1.124c0 .29-.06.557-.178.804s-.316.447-.592.598-.65.227-1.126.227h-.445v1.746H37.22v-4.91h1.56zm-.055.852h-.472v1.458h.342c.292 0 .524-.058.695-.175s.257-.306.257-.567c0-.477-.274-.715-.82-.715zm4.572 4.056v-4.91h1.034v4.05h1.985v.86h-3.018zm8.46 0h-2.813v-4.91h2.813v.852h-1.78v1.08h1.656v.852h-1.656v1.265h1.78v.86zm4.682 0h-1.034v-4.043h-1.328v-.866h3.69v.866H56.44v4.043zm6.673 0H60.3v-4.91h2.813v.852h-1.78v1.08h1.656v.852h-1.656v1.265h1.78v.86z" fill="#fff" fill-rule="nonzero"/></svg>
